X:1066
T:Ducks on the Pond
R:reel
O:American
Z:id:hn-reel-1066
M:C|
L:1/8
K:Ador
(3efg | a2ab a2g2 | edef g3e | gaba g2e2 | edeg a2eg |
a2ab a2g2 | edef gaba | g2e2 d2B2 | A3B A2 :|
G2 |: E4 e4 | edef g2g2 | B3c BAGA | BABc BAGD |
E4 e3d | edef gaba | g2e2 d2B2 |1 A3B AGED :|2 A3B A2 ||

